X:1
T:Improvista
T:Improvisata
T:Jef Tinel (1885 - 1972)
T:Ad van de Wege
T:Ad van de Wege
T:Ad van de Wege
T:Ad van de Wege
C:Jef Tinel (1885 - 1972)
Z:Ad van de Wege
%%score { ( 1 2 6 ) | ( 3 5 7 ) | ( 4 8 ) }
L:1/8
Q:1/4=116
M:4/4
K:D
V:1 treble nm="Orgel" snm="Org."
V:2 treble 
V:6 treble 
V:3 bass 
V:5 bass 
V:7 bass 
V:4 bass 
V:8 bass 
V:1
"^Allegretto" z!f! DFE F2 D2 | z8 | z AcB c2 A2 | (d4 d)fed | c3 B ABAG | F2 A2 A2 (d2 | %6
 d)Bcd e2 fg | a2 e2 ecde | f3 e d2 cB | A2 z2 z4 | z4 z cde | f4 (e4 | e)dcB A2 Bc | dcBA ^G2 AB | %14
 cB A2 ABc(e | e)def fAcB | e2 A2 d2 EF | (G4 G)BAG | FG A2 A2 d2 | dcde f3 e | dcBA G3 E | %21
 AGFE D z z2 | z8 | z8 | z8 | z Bdc d2 B2 | (f4 f)gfe | (d4 d)fed | (c4 c)edc | dBFA G2 AG | %30
 F=cBA ^G3 E | ABAG F2 GA | B=c (d2 d) d2 B | A3 =c (B3 A) | dGB(A A)^GAB | =c2 B2 A2 (d2 | %36
 d2) B2 ed=cB | ABAG FG"^Rit."FE | D"^A tempo"!wedge!DFE F2 D2 | (A4 A)BAG | FGAB A2 d2 | %41
 cd e2 (A4 | A2) de fdcB | ecdA B2 A^G |"^cresc." AAcB c2 A2 | (e4 e)ea^g | %46
"^sempre cresc." a2 =g2 gf e2 | eedc ddc^B | cd e2 eABc |!ff! ddfe f2 d2 | (a4 a)bag | fgfe e^def | %52
"^Rit.-----------------------------" g^deB d2 c2 |"^a tempo" (d8 | (d8) | %55
"^Rit. -------------" (d8) | (d4) d) z z2 |] %57
V:2
 z8 | (A4 A)BAG | F2 (E2 E)^EF(G | G)FGA BA^GB | ABA=G F2 C2 | (D4 D)EFG | A3 B c2 d(e | %7
 e)deE (A3 ^G) | F^G (A2 A2) G2 | E2 A2 ^GFGA | B4 (A4 | A)^GAB cBA=G | F4 (E4 | (E4) E)FED | %14
 CDEF E^GA=G | F4 =A3 ^G | AEF=G F2 z2 | x8 | z DFE F2 D2 | (A4 A)BAG | F4 EDCB, | %21
 A, (B,2 C) DFGA | (B4 B)ABc | dFBA A G2 B | EEAG F4 | (F3 E) DEFG | F^EFG F2 ^A2 | BcBA G4 | %28
 ABAG F3 E | DEDC B, E2 ^A, | B,=A,B,=C B,=FED | =C2 DE D^DEF | GFD=c BA (G2 | G)E F2 F G2 F | %34
 G3 F (=E4 | E)=CDE F2 GA | BAGF (E4 | E4) D2 ^C2 | A,G, (A,2 A,2) B,2 | EA,CB, C2 A,2 | D4 DEFG | %41
 A2 E2 EGFE | DEFG FA (E2 | E)=GFE DB,CD | CD E2 EFED | EAcB cdcB | Aced edcB | c_B (A2 A)^G A2 | %48
 AEA^G A3 =G | FG (A2 A)BAG | AcdB c4 | d2 [Ac]2 A2 GA | GAGE F=EFE | [DF]DFE F2 D2 | (A4 A)BAG | %55
 [DF][EG][DF][CE] ([DF]4 | ([DFA]4) [DF]) x3 |] %57
V:3
 z8 | z8 | z8 | z8 | z8 | z8 | z8 | z A,CB, C2 A,2 | (D4 D)FED | CB,CD[K:treble] E4 | DCDE F3 E | %11
 E3[K:bass] ^G, A,DC^A, | B,2 CD DCB,=A, | ^G,A,G,F, E,DCB, | A,B,CD E3 A, | ^A,B,CD B,D (E2 | %16
 E)=A, C2 (D4 | D)B,CB, A,CD(E | E)A,DC D2 A,B, | A,2 B,C D2 C2 | DEDC B,2 A,G, | %21
 E,2 A,G, F,D^C=C |[K:treble] B,^CDE F2 E2 | (D4 D)B,E(D | D)CB,(C C)EDC |[K:bass] DCB,^A, B,4 | %26
 ^A,B,CD CEDC | (B,4 B,)DCB, | A,4 B,2 ^A,2 | B,2 B,,2 E,G,F,E, | ^D,4 E,=D,=C,B,, | %31
 A,,2 B,,=C, D,=CB,A, | G,A,G,^F, G,A,B,^C | D3 E D^C D2 | D_ED(=C C)B,A,^G, | A, z z2 z A,B,=C | %36
 D4 =C2 ED | =C2 (!3!A,2 A,)B,A,G, | F,E,D,C, D,B,,C,D, | C,B,, (A,,2 A,,)G,F,E, | %40
 D,D,F,E, F,2 D,2 | (A,4 A,)B,A,G, | F,G,A,C D (A,2 ^G,) | A,3 E, F,2 E,D, | E,2 A,^G, A,A,CB, | %45
 C2 A,2[K:treble] EFED | CA,CB, CDA^G | AGF^E F=F=E^D | z4 z GFE | DEDC (D4 | D)EFG (A4 | %51
 A)GF(E[K:bass] E)^DEF | E^DEB, (A,4 | A,)F,A,G, A,3 G, | A,2 B,2 =CB,C^C | DCD_B, (A,4 | %56
 (A,4) A,) z z2 |] %57
V:4
 z8 | z8 | z8 | z8 | z8 |!f! z D,F,E, F,2 D,2 | (A,4 A,)B,A,G, | F,2 (A,2 A,)^G,F,E, | %8
 D,E,D,C, B,,2 E,2 | A,,2 z2 z4 | z8 | z8 | z8 | z8 | z A,,C,B,, ^C,2 A,,2 | %15
 (D,4 D,)!wedge!F,!wedge!E,D, | C,2 A,,2 B,,A,,G,,(F,, | E,,2) E,D, C,A,,B,,C, | %18
 D,E, (D,2 D,)E,F,G, | F,3 E, D,2 A,,2 | B,,2 C,D, E,3 E, | C,2 A,,2 D,2 E,F, | %22
 G,2 G,,2 D,2!ped! C,2!ped-up! | B,,2 G,F, E,2 G,2 | A,2 A,,2 ^A,,F,,^G,,^A,, | (B,,4 B,,)C,D,E, | %26
 F,^G,^A,B, A,2 F,2 | G,A,G,F, E,4 | F,G,F,E, D,2 F,2 | B,,2 z2 z4 | z8 | z8 | %32
 z G,,B,,A,, B,,2 G,,2 | (D,4 D,)E,D,=C, | B,,=C,D,^D, E,2 C,B,, | %35
 A,,2 B,,C, D,C,B,,!ped!A,,!ped-up! | G,,4 =C,2 A,,B,, | =C,2!ped! ^C,2 D,2 A,,2!ped-up! | %38
 D,,2 z2 z4 | z8 | z8 | z A,,C,B,, C,2 A,,2 | (D,4 D,)F,E,D, | C,E,D,C, B,,D,C,B,, | (A,,8 | %45
 (A,,8) | (A,,8) | (A,,8) | A,,)A,,C,B,, C,2 A,,2 | (D,4!ff! D,)D,,F,,E,, | F,,2 D,,2 (A,,4 | %51
 A,,)B,,A,,G,, F,,2 E,,^D,, | E,,F,,G,,!ped!^G,, A,,4!ped-up! | (D,8 | (D,8) | (D,8) | %56
 (D,4)"_1 juni 1914""_tijdsduur 3'20''" D,) z z2 |] %57
V:5
 x8 | x8 | x8 | x8 | x8 | x8 | x8 | x8 | x8 | x4[K:treble] x4 | x8 | x3[K:bass] x5 | x8 | x8 | x8 | %15
 x8 | x8 | x8 | x8 | x8 | x8 | x8 |[K:treble] x8 | x8 | x8 |[K:bass] x8 | x8 | x8 | x8 | x8 | x8 | %31
 x8 | x8 | x8 | x8 | x8 | x8 | x8 | x8 | x8 | x8 | x8 | x8 | x8 | x8 | x4[K:treble] x4 | x8 | x8 | %48
 (E4 E2) DC | A,8 | A,3 D EGFE | D2 ([A,C]2[K:bass] A,2) G,A, | G,A,G,^E, F,G,A,G, | %53
 [D,F,] z z2 z D,F,E, | F,2 D,2 A,4 | A,_B,A,G, F,4 | ([D,F,]4 F,) x3 |] %57
V:6
 x8 | x8 | x8 | x8 | x8 | x8 | x8 | x8 | x8 | x8 | x8 | x8 | x8 | x8 | x8 | x8 | x8 | x8 | x8 | %19
 x8 | x8 | x8 | x8 | x8 | x8 | x8 | x8 | x8 | x8 | x8 | x8 | x8 | x8 | x8 | x8 | x8 | x8 | x8 | %38
 x8 | x8 | x8 | x8 | x8 | x8 | x8 | x8 | x8 | x8 | x8 | x8 | x8 | x4 (B4 | B3) ^D DGAG | x8 | %54
 z DF(E F)GFE | x8 | x8 |] %57
V:7
 x8 | x8 | x8 | x8 | x8 | x8 | x8 | x8 | x8 | x4[K:treble] x4 | x8 | x3[K:bass] x5 | x8 | x8 | x8 | %15
 x8 | x8 | x8 | x8 | x8 | x8 | x8 |[K:treble] x8 | x8 | x8 |[K:bass] x8 | x8 | x8 | x8 | x8 | x8 | %31
 x8 | x8 | x8 | x8 | x8 | x8 | x8 | x8 | x8 | x8 | x8 | x8 | x8 | x8 | x4[K:treble] x4 | x8 | x8 | %48
 x8 | x8 | x8 | x4[K:bass] (B,4 | B,3) (=D, =D,)=E,F,E, | x8 | x8 | x8 | x8 |] %57
V:8
 x8 | x8 | x8 | x8 | x8 | x8 | x8 | x8 | x8 | x8 | x8 | x8 | x8 | x8 | x8 | x8 | x8 | x8 | x8 | %19
 x8 | x8 | x8 | x8 | x8 | x8 | x8 | x8 | x8 | x8 | x8 | x8 | x8 | x8 | x8 | x8 | x8 | x8 | x8 | %38
 x8 | x8 | x8 | x8 | x8 | x8 | x8 | x8 | x8 | x8 | x8 | x8 | x8 | x8 | x8 | (D,,8 | (D,,8) | %55
 (D,,8) | (D,,4) D,,) x3 |] %57

